bundles/org.openhab.ui.habpanel/web/assets/icons/freepik-household/door-5.svg

<svg xmlns="http://www.w3.org/2000/svg" viewBox="0 0 60 60" style="enable-background:new 0 0 60 60" xml:space="preserve"><path d="M9 8v32h18V8H9zm8 2v8h-6v-8h6zm8 18h-6v-8h6v8zm-8 0h-6v-8h6v8zm-6 2h6v8h-6v-8zm8 8v-8h6v8h-6zm6-20h-6v-8h6v8zM9 56h18V42H9v14zm2-12h14v10H11V44zM33 8v32h18V8H33zm8 2v8h-6v-8h6zm8 18h-6v-8h6v8zm-8 0h-6v-8h6v8zm-6 2h6v8h-6v-8zm8 8v-8h6v8h-6zm6-20h-6v-8h6v8zM33 56h18V42H33v14zm2-12h14v10H35V44z"/><path d="M1 0v60h58V0H1zm6 58V6h22v52H7zm24 0V6h22v52H31zm26 0h-2V4H5v54H3V2h54v56z"/><path d="m38.293 47.293-2 2a.999.999 0 1 0 1.414 1.414l2-2a.999.999 0 1 0-1.414-1.414z"/><circle cx="41" cy="46" r="1"/><circle cx="37" cy="46" r="1"/><path d="m14.293 47.293-2 2a.999.999 0 1 0 1.414 1.414l2-2a.999.999 0 1 0-1.414-1.414z"/><circle cx="17" cy="46" r="1"/><circle cx="13" cy="46" r="1"/></svg>

<?xml version="1.0" encoding="iso-8859-1"?>
<!-- Generator: Adobe Illustrator 18.0.0, SVG Export Plug-In . SVG Version: 6.00 Build 0)  -->
<!DOCTYPE svg PUBLIC "-//W3C//DTD SVG 1.1//EN" "http://www.w3.org/Graphics/SVG/1.1/DTD/svg11.dtd">
<svg version="1.1" id="Capa_1" xmlns="http://www.w3.org/2000/svg" xmlns:xlink="http://www.w3.org/1999/xlink" x="0px" y="0px"
	 viewBox="0 0 60 60" style="enable-background:new 0 0 60 60;" xml:space="preserve">
<g>
	<path d="M9,8v32h18V8H9z M17,10v8h-6v-8H17z M25,28h-6v-8h6V28z M17,28h-6v-8h6V28z M11,30h6v8h-6V30z M19,38v-8h6v8H19z M25,18h-6
		v-8h6V18z"/>
	<path d="M9,56h18V42H9V56z M11,44h14v10H11V44z"/>
	<path d="M33,8v32h18V8H33z M41,10v8h-6v-8H41z M49,28h-6v-8h6V28z M41,28h-6v-8h6V28z M35,30h6v8h-6V30z M43,38v-8h6v8H43z M49,18
		h-6v-8h6V18z"/>
	<path d="M33,56h18V42H33V56z M35,44h14v10H35V44z"/>
	<path d="M1,0v60h4h24h2h24h4V0H1z M7,58V6h22v52H7z M31,58V6h22v52H31z M57,58h-2V4H31h-2H5v54H3V2h54V58z"/>
	<path d="M38.293,47.293l-2,2c-0.391,0.391-0.391,1.023,0,1.414C36.488,50.902,36.744,51,37,51s0.512-0.098,0.707-0.293l2-2
		c0.391-0.391,0.391-1.023,0-1.414S38.684,46.902,38.293,47.293z"/>
	<circle cx="41" cy="46" r="1"/>
	<circle cx="37" cy="46" r="1"/>
	<path d="M14.293,47.293l-2,2c-0.391,0.391-0.391,1.023,0,1.414C12.488,50.902,12.744,51,13,51s0.512-0.098,0.707-0.293l2-2
		c0.391-0.391,0.391-1.023,0-1.414S14.684,46.902,14.293,47.293z"/>
	<circle cx="17" cy="46" r="1"/>
	<circle cx="13" cy="46" r="1"/>
</g>
<g>
</g>
<g>
</g>
<g>
</g>
<g>
</g>
<g>
</g>
<g>
</g>
<g>
</g>
<g>
</g>
<g>
</g>
<g>
</g>
<g>
</g>
<g>
</g>
<g>
</g>
<g>
</g>
<g>
</g>
</svg>
